source/img/main/map-arrow.svg

<svg width="412" height="23" viewBox="0 0 412 23" fill="none" xmlns="http://www.w3.org/2000/svg">
<path fill-rule="evenodd" clip-rule="evenodd" d="M0.435943 12.1302C-0.145314 11.5489 -0.145314 10.6065 0.435943 10.0253L9.90808 0.55313C10.4893 -0.0281268 11.4317 -0.0281268 12.013 0.55313C12.5943 1.13439 12.5943 2.07679 12.013 2.65805L5.08172 9.58932H406.908L399.976 2.65805C399.395 2.07679 399.395 1.13439 399.976 0.55313C400.558 -0.0281268 401.5 -0.0281268 402.081 0.55313L411.553 10.0253C412.135 10.6065 412.135 11.5489 411.553 12.1302L402.081 21.6023C401.5 22.1836 400.558 22.1836 399.976 21.6023C399.395 21.0211 399.395 20.0787 399.976 19.4974L406.908 12.5661H5.08172L12.013 19.4974C12.5943 20.0787 12.5943 21.0211 12.013 21.6023C11.4317 22.1836 10.4893 22.1836 9.90808 21.6023L0.435943 12.1302Z" fill="white"/>
</svg>

<svg width="412" height="23" fill="none" xmlns="http://www.w3.org/2000/svg"><path fill-rule="evenodd" clip-rule="evenodd" d="M.436 12.13a1.488 1.488 0 010-2.105L9.908.553a1.488 1.488 0 012.105 2.105L5.082 9.59h401.826l-6.932-6.931a1.489 1.489 0 012.105-2.105l9.472 9.472a1.487 1.487 0 010 2.105l-9.472 9.472a1.488 1.488 0 11-2.105-2.105l6.932-6.93H5.082l6.931 6.93a1.488 1.488 0 11-2.105 2.105L.436 12.13z" fill="#fff"/></svg>
